;FLAVOR:Marlin
;TIME:1488
;Filament used: 0.616266m
;Layer height: 0.2
;MINX:95.759
;MINY:95.763
;MINZ:0.2
;MAXX:124.236
;MAXY:124.237
;MAXZ:39
;TARGET_MACHINE.NAME:Alfawise U30
;Generated with Cura_SteamEngine 5.11.0
M140 S60
M105
M190 S60
M104 S200
M105
M109 S200
; -- START GCODE --
G21        ;metric values
G90        ;absolute positioning
M82        ;set extruder to absolute mode
M107       ;start with the fan off
G28 X0 Y0  ;move X/Y to min endstops
G28 Z0     ;move Z to min endstops
G1 Z1 F1000             ;move up slightly
G1 Y60.0 Z0 E9.0 F1000.0;intro line
G1 Y100.0 E21.5 F1000.0 ;continue line
G92 E0                  ;zero the extruded length again
G1 F80
;Put printing message on LCD screen
M117 Printing...
; -- end of START GCODE --
M82 ;absolute extrusion mode
G92 E0
G92 E0
G1 F2700 E-5
;LAYER_COUNT:195
;LAYER:0
M107
G0 F3600 X102.496 Y104.084 Z0.2
;TYPE:SKIRT
G1 F2700 E0
G1 F1200 X103.245 Y103.487 E0.03186
G1 X105.6 Y101.676 E0.13067
G1 X106.225 Y101.214 E0.15652
G1 X106.85 Y100.837 E0.18079
G1 X107.593 Y100.536 E0.20746
G1 X108.083 Y100.412 E0.22427
G1 X109.101 Y100.323 E0.25826
G1 X109.766 Y100.378 E0.28045
G1 X110.913 Y100.565 E0.3191
G1 X111.53 Y100.717 E0.34024
G1 X113.762 Y101.366 E0.41755
G1 X114.593 Y101.627 E0.44652
G1 X115.12 Y101.841 E0.46544
G1 X115.822 Y102.254 E0.49253
G1 X116.466 Y102.793 E0.52046
G1 X116.975 Y103.359 E0.54578
G1 X117.44 Y104.082 E0.57437
G1 X117.985 Y105.157 E0.61445
G1 X119.086 Y107.449 E0.69903
G1 X119.407 Y108.148 E0.72461
G1 X119.672 Y108.906 E0.75132
G1 X119.813 Y109.718 E0.77873
G1 X119.818 Y110.471 E0.80377
G1 X119.711 Y111.204 E0.82841
G1 X119.501 Y111.942 E0.85393
G1 X118.807 Y113.286 E0.90424
G1 X117.578 Y115.55 E0.98992
G1 X117.045 Y116.5 E1.02615
G1 X116.41 Y117.237 E1.05851
G1 X115.758 Y117.823 E1.08767
G1 X114.931 Y118.288 E1.11922
G1 X114.283 Y118.536 E1.1423
G1 X113.42 Y118.769 E1.17203
G1 X111.557 Y119.225 E1.23582
G1 X110.705 Y119.411 E1.26483
G1 X109.476 Y119.614 E1.30626
G1 X108.935 Y119.594 E1.32426
G1 X108.403 Y119.404 E1.34305
G1 X108.143 Y119.197 E1.35411
G1 X107.838 Y118.82 E1.37024
G1 X107.727 Y118.576 E1.37915
G1 X107.588 Y118.67 E1.38473
G1 X107.113 Y118.862 E1.40177
G1 X106.779 Y118.914 E1.41302
G1 X106.147 Y118.803 E1.43436
G1 X105.797 Y118.601 E1.4478
G1 X105.078 Y118.008 E1.4788
G1 X102.972 Y116.211 E1.57088
G1 X102.356 Y115.664 E1.59828
G1 X101.831 Y115.101 E1.62388
G1 X101.2 Y114.126 E1.66251
G1 X100.941 Y113.499 E1.68507
G1 X100.72 Y112.668 E1.71367
G1 X100.647 Y111.142 E1.76448
G1 X100.619 Y109.863 E1.80703
G1 X100.642 Y109.227 E1.8282
G1 X100.717 Y108.119 E1.86514
G1 X100.794 Y107.206 E1.89561
G1 X101.061 Y106.16 E1.93152
G1 X101.401 Y105.437 E1.95809
G1 X101.764 Y104.896 E1.97976
G1 X102.496 Y104.084 E2.01612
G0 F3600 X102.745 Y104.397
G1 F1200 X103.489 Y103.804 E2.04777
G1 X105.838 Y101.997 E2.14634
G1 X106.432 Y101.557 E2.17092
G1 X107.057 Y101.18 E2.1952
G1 X107.691 Y100.924 E2.21794
G1 X108.181 Y100.8 E2.23475
G1 X109.069 Y100.722 E2.2644
G1 X109.702 Y100.773 E2.28552
G1 X110.818 Y100.954 E2.32313
G1 X111.418 Y101.101 E2.34367
G1 X113.643 Y101.748 E2.42074
G1 X114.443 Y101.998 E2.44862
G1 X114.97 Y102.212 E2.46754
G1 X115.565 Y102.561 E2.49048
G1 X116.209 Y103.1 E2.51841
G1 X116.676 Y103.625 E2.54178
G1 X117.083 Y104.263 E2.56695
G1 X117.624 Y105.33 E2.60674
G1 X118.722 Y107.616 E2.69109
G1 X119.043 Y108.315 E2.71667
G1 X119.294 Y109.037 E2.7421
G1 X119.413 Y109.723 E2.76525
G1 X119.422 Y110.415 E2.78827
G1 X119.326 Y111.094 E2.81108
G1 X119.125 Y111.799 E2.83546
G1 X118.456 Y113.095 E2.88397
G1 X117.229 Y115.354 E2.96947
G1 X116.715 Y116.271 E3.00444
G1 X116.107 Y116.976 E3.0354
G1 X115.527 Y117.494 E3.06127
G1 X114.788 Y117.914 E3.08954
G1 X114.14 Y118.162 E3.11261
G1 X113.325 Y118.38 E3.14067
G1 X111.471 Y118.834 E3.20416
G1 X110.64 Y119.016 E3.23245
G1 X109.411 Y119.219 E3.27389
G1 X109.069 Y119.217 E3.28526
G1 X108.598 Y119.049 E3.30189
G1 X108.454 Y118.945 E3.3078
G1 X108.149 Y118.568 E3.32393
G1 X108.055 Y118.303 E3.33328
G1 X108.007 Y117.683 E3.35396
G1 X107.922 Y117.659 E3.3569
G1 X107.749 Y117.994 E3.36944
G1 X107.438 Y118.299 E3.38393
G1 X106.963 Y118.491 E3.40097
G1 X106.785 Y118.509 E3.40692
G1 X106.286 Y118.421 E3.42377
G1 X106.051 Y118.292 E3.43269
G1 X105.338 Y117.704 E3.46343
G1 X103.237 Y115.912 E3.55527
G1 X102.649 Y115.391 E3.5814
G1 X102.124 Y114.828 E3.60701
G1 X101.569 Y113.971 E3.64097
G1 X101.328 Y113.396 E3.6617
G1 X101.118 Y112.606 E3.68889
G1 X101.047 Y111.133 E3.73794
G1 X101.019 Y109.877 E3.77973
G1 X101.041 Y109.254 E3.80046
G1 X101.116 Y108.153 E3.83716
G1 X101.193 Y107.24 E3.86764
G1 X101.439 Y106.296 E3.90008
G1 X101.735 Y105.658 E3.92348
G1 X102.063 Y105.162 E3.94325
G1 X102.745 Y104.397 E3.97734
G1 F2700 E-1.02266
G0 F3600 X104.973 Y112.24
G0 X107.557 Y117.518
G1 F2700 E3.97734
G1 F1200 X107.4 Y117.799 E3.98805
G1 X107.173 Y118 E3.99813
G1 X106.837 Y118.112 E4.00991
G1 X106.465 Y118.063 E4.02239
G1 X106.305 Y117.983 E4.02834
G1 X105.598 Y117.4 E4.05882
G1 X103.502 Y115.612 E4.15045
G1 X102.942 Y115.118 E4.17529
G1 X102.417 Y114.555 E4.20089
G1 X101.937 Y113.814 E4.23026
G1 X101.715 Y113.293 E4.24909
G1 X101.516 Y112.544 E4.27487
G1 X101.447 Y111.124 E4.32216
G1 X101.419 Y109.891 E4.36318
G1 X101.44 Y109.281 E4.38348
G1 X101.515 Y108.187 E4.41995
G1 X101.592 Y107.274 E4.45042
G1 X101.803 Y106.462 E4.47833
G1 X102.069 Y105.879 E4.49964
G1 X102.397 Y105.383 E4.51942
G1 X102.994 Y104.71 E4.54934
G1 X103.733 Y104.121 E4.58077
G1 X106.077 Y102.318 E4.67913
G1 X106.641 Y101.898 E4.70252
G1 X107.209 Y101.55 E4.72467
G1 X107.789 Y101.312 E4.74552
G1 X108.279 Y101.188 E4.76234
G1 X109.038 Y101.121 E4.78768
G1 X109.638 Y101.168 E4.8077
G1 X110.754 Y101.349 E4.8453
G1 X111.306 Y101.485 E4.86421
G1 X113.524 Y102.13 E4.94103
G1 X114.293 Y102.369 E4.96782
G1 X114.82 Y102.583 E4.98674
G1 X115.308 Y102.868 E5.00553
G1 X115.952 Y103.407 E5.03346
G1 X116.376 Y103.889 E5.05482
G1 X116.726 Y104.444 E5.07664
G1 X117.263 Y105.503 E5.11613
G1 X118.358 Y107.783 E5.20026
G1 X118.679 Y108.482 E5.22584
G1 X118.9 Y109.108 E5.24792
G1 X119.013 Y109.731 E5.26898
G1 X119.026 Y110.361 E5.28994
G1 X118.941 Y110.984 E5.31085
G1 X118.75 Y111.654 E5.33402
G1 X118.104 Y112.904 E5.38082
G1 X116.88 Y115.158 E5.46613
G1 X116.385 Y116.041 E5.4998
G1 X115.84 Y116.678 E5.52768
G1 X115.294 Y117.166 E5.55204
G1 X114.645 Y117.54 E5.57695
G1 X113.997 Y117.788 E5.60003
G1 X113.23 Y117.991 E5.62642
G1 X111.385 Y118.443 E5.6896
G1 X110.575 Y118.621 E5.71718
G1 X109.346 Y118.824 E5.75861
G1 X109.079 Y118.817 E5.7675
G1 X108.753 Y118.68 E5.77926
G1 X108.519 Y118.416 E5.79099
G1 X108.452 Y118.253 E5.79685
G1 X108.391 Y117.764 E5.81324
G0 F3600 X108.788 Y117.796
G1 F1200 X108.846 Y118.186 E5.82636
G1 X108.948 Y118.331 E5.83225
G1 X109.104 Y118.418 E5.83819
G1 X109.281 Y118.429 E5.84409
G1 X110.51 Y118.226 E5.88552
G1 X111.299 Y118.052 E5.9124
G1 X113.135 Y117.602 E5.97527
G1 X113.857 Y117.413 E6.00009
G1 X114.445 Y117.193 E6.02097
G1 X115.06 Y116.839 E6.04457
G1 X115.573 Y116.38 E6.06747
G1 X116.055 Y115.811 E6.09227
G1 X116.531 Y114.962 E6.12464
G1 X117.752 Y112.713 E6.20976
G1 X118.375 Y111.508 E6.25488
G1 X118.556 Y110.874 E6.27681
G1 X118.629 Y110.31 E6.29572
G1 X118.613 Y109.742 E6.31462
G1 X118.507 Y109.183 E6.33355
G1 X118.303 Y108.618 E6.35352
G1 X117.995 Y107.951 E6.37796
G1 X116.902 Y105.676 E6.46191
G1 X116.369 Y104.625 E6.5011
G1 X116.038 Y104.103 E6.52166
G1 X115.654 Y103.674 E6.54081
G1 X115.104 Y103.212 E6.5647
G1 X114.67 Y102.954 E6.58149
G1 X114.143 Y102.74 E6.60041
G1 X113.406 Y102.512 E6.62607
G1 X111.194 Y101.869 E6.70269
G1 X110.659 Y101.738 E6.72101
G1 X109.574 Y101.563 E6.75756
G1 X109.008 Y101.52 E6.77644
G1 X108.377 Y101.576 E6.79751
G1 X107.887 Y101.7 E6.81432
G1 X107.363 Y101.919 E6.83321
G1 X106.853 Y102.237 E6.8532
G1 X106.317 Y102.638 E6.87546
G1 X103.977 Y104.438 E6.97366
G1 X103.243 Y105.023 E7.00487
G1 X102.731 Y105.604 E7.03063
G1 X102.403 Y106.1 E7.05041
G1 X102.168 Y106.625 E7.06954
G1 X101.991 Y107.308 E7.09301
G1 X101.914 Y108.221 E7.12348
G1 X101.839 Y109.309 E7.15975
G1 X101.819 Y109.904 E7.17955
G1 X101.847 Y111.115 E7.21984
G1 X101.914 Y112.482 E7.26536
G1 X102.102 Y113.19 E7.28973
G1 X102.304 Y113.654 E7.30656
G1 X102.71 Y114.282 E7.33143
G1 X103.235 Y114.845 E7.35704
G1 X103.766 Y115.311 E7.38053
G1 X105.858 Y117.096 E7.472
G1 X106.559 Y117.674 E7.50222
G1 X106.754 Y117.721 E7.50889
G1 X106.928 Y117.684 E7.51481
G1 X107.069 Y117.575 E7.52073
G1 X107.227 Y117.342 E7.5301
G0 F3600 X106.919 Y117.128
G1 F1200 X106.76 Y117.321 E7.53842
G1 X106.118 Y116.792 E7.56608
G1 X104.03 Y115.01 E7.65738
G1 X103.499 Y114.544 E7.68088
G1 X103.003 Y114.01 E7.70512
G1 X102.671 Y113.494 E7.72553
G1 X102.469 Y113.03 E7.74236
G1 X102.312 Y112.424 E7.76318
G1 X102.247 Y111.106 E7.80707
G1 X102.219 Y109.917 E7.84663
G1 X102.238 Y109.337 E7.86593
G1 X102.313 Y108.255 E7.90201
G1 X102.39 Y107.342 E7.93248
G1 X102.535 Y106.785 E7.95162
G1 X102.737 Y106.321 E7.96845
G1 X103.065 Y105.825 E7.98823
G1 X103.493 Y105.336 E8.00985
G1 X104.221 Y104.755 E8.04083
G1 X106.557 Y102.958 E8.13885
G1 X107.093 Y102.557 E8.16111
G1 X107.521 Y102.287 E8.17795
G1 X107.985 Y102.088 E8.19474
G1 X108.475 Y101.964 E8.21155
G1 X108.979 Y101.919 E8.22838
G1 X109.511 Y101.958 E8.24612
G1 X110.564 Y102.127 E8.28159
G1 X111.082 Y102.253 E8.29932
G1 X113.288 Y102.894 E8.37573
G1 X113.996 Y103.112 E8.40037
G1 X114.466 Y103.298 E8.41718
G1 X114.9 Y103.556 E8.43397
G1 X115.359 Y103.944 E8.45396
G1 X115.7 Y104.317 E8.47077
G1 X116.031 Y104.839 E8.49133
G1 X116.541 Y105.849 E8.52896
G1 X117.632 Y108.119 E8.61273
G1 X117.94 Y108.786 E8.63717
G1 X118.115 Y109.261 E8.654
G1 X118.213 Y109.757 E8.67082
G1 X118.232 Y110.262 E8.68763
G1 X118.171 Y110.764 E8.70445
G1 X118 Y111.362 E8.72513
G1 X117.4 Y112.522 E8.76857
G1 X116.182 Y114.767 E8.85352
G1 X115.725 Y115.583 E8.88463
G1 X115.306 Y116.082 E8.9063
G1 X114.823 Y116.514 E8.92785
G1 X114.303 Y116.819 E8.9479
G1 X113.756 Y117.026 E8.96736
G1 X113.04 Y117.213 E8.99197
G1 X111.212 Y117.661 E9.05457
G1 X110.445 Y117.831 E9.0807
G1 X109.216 Y118.034 E9.12213
G1 X109.182 Y117.775 E9.13082
G1 F2700 E4.13082
;MESH:vaso_export.stl
G0 F3600 X109.236 Y115.324
G0 X109.012 Y114.256
G0 X106.62 Y109.662
;TYPE:WALL-INNER
G1 F2700 E9.13082
G1 F1200 X106.631 Y111.591 E9.19498
G1 X109.17 Y113.647 E9.30364
G1 X112.305 Y112.915 E9.41071
G1 X113.735 Y110.022 E9.51805
G1 X112.325 Y107.093 E9.62617
G1 X109.868 Y106.5 E9.71023
G1 X109.195 Y106.354 E9.73314
G1 X106.642 Y108.373 E9.8414
G1 X106.62 Y109.662 E9.88428
G0 F3600 X106.22 Y109.664
G1 F1200 X106.232 Y111.782 E9.95472
G1 X109.057 Y114.07 E10.07563
G1 X109.664 Y113.943 E10.09626
G1 X112.58 Y113.262 E10.19586
G1 X114.18 Y110.024 E10.31598
G1 X112.603 Y106.749 E10.43688
G1 X109.952 Y106.109 E10.52759
G1 X109.095 Y105.923 E10.55675
G1 X106.245 Y108.177 E10.67761
G1 X106.22 Y109.664 E10.72707
G0 F3600 X106.533 Y109.663
G0 X109.595 Y113.642
G0 X109.754 Y114.333
;TYPE:WALL-OUTER
G1 F1200 X112.809 Y113.62 E10.83141
G1 X112.881 Y113.555 E10.83464
G1 X114.625 Y110.026 E10.96556
G1 X112.908 Y106.46 E11.0972
G1 X112.837 Y106.394 E11.10043
G1 X110.037 Y105.718 E11.19623
G1 X108.995 Y105.492 E11.23169
G1 X105.849 Y107.981 E11.36512
G1 X105.82 Y109.666 E11.42117
G1 X105.832 Y111.974 E11.49793
G1 X108.953 Y114.5 E11.63148
G1 X109.754 Y114.333 E11.65869
G0 F3600 X109.948 Y114.288
G0 X109.789 Y113.596
G0 X107.001 Y109.684
;TYPE:SKIN
G1 F1200 X107.019 Y108.559 E11.69612
G1 X109.299 Y106.757 E11.79277
G1 X112.056 Y107.421 E11.88709
G1 X113.309 Y110.022 E11.98312
G1 X112.042 Y112.582 E12.07812
G1 X109.262 Y113.234 E12.17309
G1 X107.008 Y111.408 E12.26958
G1 X107.001 Y109.684 E12.32692
G0 F3600 X107.207 Y111.167
G1 F1200 X107.969 Y111.929 E12.36276
G1 X108.039 Y111.999
G0 F3600 X107.204 Y110.599
G1 F1200 X109.563 Y112.957 E12.4737
G0 F3600 X110.022 Y112.85
G1 F1200 X107.202 Y110.031 E12.60632
G0 F3600 X107.204 Y109.466
G1 F1200 X110.48 Y112.743 E12.76043
G0 F3600 X110.938 Y112.635
G1 F1200 X107.213 Y108.91 E12.93565
G0 F3600 X107.39 Y108.521
G1 F1200 X111.396 Y112.528 E13.1241
G0 F3600 X111.854 Y112.42
G1 F1200 X107.706 Y108.271 E13.31923
G0 F3600 X108.022 Y108.022
G1 F1200 X112.072 Y112.072 E13.50973
G0 F3600 X112.26 Y111.694
G1 F1200 X108.338 Y107.772 E13.69421
G0 F3600 X108.654 Y107.523
G1 F1200 X112.446 Y111.315 E13.87257
G0 F3600 X112.634 Y110.937
G1 F1200 X108.97 Y107.273 E14.04492
G0 F3600 X109.286 Y107.023
G1 F1200 X112.82 Y110.558 E14.21117
G0 F3600 X113.008 Y110.179
G1 F1200 X109.947 Y107.118 E14.35515
G0 F3600 X110.692 Y107.298
G1 F1200 X112.78 Y109.386 E14.45336
G1 X112.85 Y109.456
G0 F3600 X112.256 Y108.296
G1 F1200 X111.437 Y107.477 E14.49189
G1 X111.367 Y107.407
G1 F2700 E9.49189
;MESH:NONMESH
G0 F300 X111.367 Y107.407 Z0.4
G0 F3600 X109.012 Y114.256
G0 X108.326 Y115.105
G0 X106.919 Y117.128
;TIME_ELAPSED:37.745889
;LAYER:1
M106 S255
;TYPE:SKIRT
G1 F2700 E14.49189
G1 F1200 X106.76 Y117.321 E14.5002
G1 X106.118 Y116.792 E14.52787
G1 X104.03 Y115.01 E14.61917
G1 X103.499 Y114.544 E14.64267
G1 X103.003 Y114.01 E14.66691
G1 X102.671 Y113.494 E14.68732
G1 X102.469 Y113.03 E14.70415
G1 X102.312 Y112.424 E14.72497
G1 X102.247 Y111.106 E14.76886
G1 X102.219 Y109.917 E14.80842
G1 X102.238 Y109.337 E14.82772
G1 X102.313 Y108.255 E14.86379
G1 X102.39 Y107.342 E14.89427
G1 X102.535 Y106.785 E14.91341
G1 X102.737 Y106.321 E14.93024
G1 X103.065 Y105.825 E14.95002
G1 X103.493 Y105.336 E14.97163
G1 X104.221 Y104.755 E15.00261
G1 X106.557 Y102.958 E15.10064
G1 X107.093 Y102.557 E15.1229
G1 X107.521 Y102.287 E15.13973
G1 X107.985 Y102.088 E15.15653
G1 X108.475 Y101.964 E15.17334
G1 X108.979 Y101.919 E15.19017
G1 X109.511 Y101.958 E15.20791
G1 X110.564 Y102.127 E15.24338
G1 X111.082 Y102.253 E15.26111
G1 X113.288 Y102.894 E15.33752
G1 X113.996 Y103.112 E15.36216
G1 X114.466 Y103.298 E15.37897
G1 X114.9 Y103.556 E15.39576
G1 X115.359 Y103.944 E15.41575
G1 X115.7 Y104.317 E15.43256
G1 X116.031 Y104.839 E15.45312
G1 X116.541 Y105.849 E15.49075
G1 X117.632 Y108.119 E15.57452
G1 X117.94 Y108.786 E15.59895
G1 X118.115 Y109.261 E15.61579
G1 X118.213 Y109.757 E15.63261
G1 X118.232 Y110.262 E15.64941
G1 X118.171 Y110.764 E15.66623
G1 X118 Y111.362 E15.68692
G1 X117.4 Y112.522 E15.73036
G1 X116.182 Y114.767 E15.81531
G1 X115.725 Y115.583 E15.84642
G1 X115.306 Y116.082 E15.86809
G1 X114.823 Y116.514 E15.88964
G1 X114.303 Y116.819 E15.90969
G1 X113.756 Y117.026 E15.92914
G1 X113.04 Y117.213 E15.95376
G1 X111.212 Y117.661 E16.01636
G1 X110.445 Y117.831 E16.04248
G1 X109.216 Y118.034 E16.08392
G1 X109.182 Y117.775 E16.0926
G1 F2700 E11.0926
;MESH:vaso_export.stl
G0 F5400 X109.153 Y115.407
G0 X108.963 Y114.332
G0 X106.513 Y109.916
;TYPE:WALL-INNER
G1 F2700 E16.0926
G1 F1800 X106.545 Y111.576 E16.14783
G1 X109.126 Y113.721 E16.25945
G1 X109.667 Y113.622 E16.27774
G1 X112.313 Y112.992 E16.36821
G1 X113.83 Y110.067 E16.4778
G1 X112.383 Y107.058 E16.58885
G1 X109.817 Y106.372 E16.67719
G1 X109.24 Y106.258 E16.69675
G1 X106.579 Y108.332 E16.80896
G1 X106.513 Y109.916 E16.86169
G0 F5400 X109.688 Y113.712
G0 X109.759 Y114.012
G1 F1800 X112.583 Y113.339 E16.95825
G1 X114.277 Y110.073 E17.08062
G1 X112.664 Y106.719 E17.20441
G1 X109.908 Y105.982 E17.29929
G1 X109.138 Y105.83 E17.3254
G1 X106.187 Y108.13 E17.44984
G1 X106.113 Y109.911 E17.50912
G1 X106.148 Y111.766 E17.57083
G1 X109.013 Y114.148 E17.69476
G1 X109.759 Y114.012 E17.71998
G0 F5400 X109.803 Y114.412
;TYPE:WALL-OUTER
G1 F1200 X112.811 Y113.697 E17.82281
G1 X112.882 Y113.632 E17.82601
G1 X114.724 Y110.08 E17.95909
G1 X112.972 Y106.436 E18.09357
G1 X112.899 Y106.368 E18.09689
G1 X109.998 Y105.592 E18.19677
G1 X109.036 Y105.402 E18.22939
G1 X105.795 Y107.928 E18.36606
G1 X105.713 Y109.907 E18.43193
G1 X105.752 Y111.956 E18.5001
G1 X108.901 Y114.574 E18.6363
G1 X109.803 Y114.412 E18.66678
G0 F5400 X109.997 Y114.366
G0 X109.834 Y113.677
G0 X106.893 Y109.922
;TYPE:SKIN
G1 F1200 X106.949 Y108.521 E18.71342
G1 X109.359 Y106.644 E18.81502
G1 X112.111 Y107.378 E18.90975
G1 X113.404 Y110.06 E19.00878
G1 X112.052 Y112.662 E19.10631
G1 X109.252 Y113.33 E19.20205
